X:1
T:Airlie, 10.10.10.10
T:Airlie, 10.10.10.10
T:Sidney Hugo Nicholson, 1916
T:Public Domain Courtesy of the Cyber Hymnal™
C:Sidney Hugo Nicholson, 1916
Z:Public Domain
Z:Courtesy of the Cyber Hymnal™
%%score ( 1 2 ) ( 3 4 )
L:1/8
Q:1/4=113
M:3/4
K:Eb
V:1 treble 
V:2 treble 
V:3 bass 
V:4 bass 
V:1
 B2 | [Ge]2 [Bd]2 [Ac]2 | B4 (EF) | (G2 A2) [DF]2 | B4 (G[EG]) | (A2 B2 c2) | B2 G2 [DF]2 | %7
 E4 [EG]2 | F4 ([DF][EG]) | A2 z F2 x3 | [DA]2 [EG]2 (GA) | B2 c2 [_EG]2 | [GB]2 [FA]2 ([Fc][Bd]) | %13
 [Be]2 [Ad]2 [Gc]2 | B2 [DG]2 ([CE][EF]) | (G2 A2) [DF]2 | E4 |] %17
V:2
 B2 | x6 | (G2 F2) E2 | E4 x2 | (E2 F2) G x | E6- | E4 x2 | (E2 C2) x2 | (E2 D2) x2 | %9
 F3 (B2 E) (DC) | x4 F2 | (=ED) (CD) x2 | x6 | x6 | (FE) x4 | E4 x2 | E4 |] %17
V:3
 B,2 | B,4 (CD) | (E2 D2) [A,,C]2 | (B,2 C2) [A,B,]2 | B,4 B,2 | [C,A,]2 [B,,G,]2 [A,,A,]2 | %6
 [G,,B,]2 [A,,C]2 [B,,A,]2 | [C,G,]4 [F,,=A,]2 | [B,,B,]4 B,2 | C2 B,3 z A, x | F,2 G,2 [_D,B,]2 | %11
 (G,F,) [=E,G,]2 [C,C]2 | (_D2 C2) (CB,) | [G,B,]2 [F,D]2 (G,A,) | [D,B,]2 (B,A,) (G,=A,) | %15
 (B,2 C2) [B,,A,]2 | [E,G,]4 |] %17
V:4
 B,2 | E,6- | E,4 x2 | B,,4 x2 | (G,2 F,2) (E,_D,) | x6 | x6 | x6 | x4 (A,G,) | %9
 (F,E,)(D,C,) B,,2 x2 | E,4 x2 | C,2 x4 | F,4 A,2 | x4 E,2 | x2 B,,2 C,2 | B,,4 x2 | x4 |] %17

